P3
16 16
255
0 0 128 17 0 128 34 0 128 51 0 128 68 0 128 85 0 128 102 0 128 119 0 128 136 0 128 153 0 128 170 0 128 187 0 128 204 0 128 221 0 128 238 0 128 255 0 128
0 17 128 17 17 128 34 17 128 51 17 128 68 17 128 85 17 128 102 17 128 119 17 128 136 17 128 153 17 128 170 17 128 187 17 128 204 17 128 221 17 128 238 17 128 255 17 128
0 34 128 17 34 128 34 34 128 51 34 128 68 34 128 85 34 128 102 34 128 119 34 128 136 34 128 153 34 128 170 34 128 187 34 128 204 34 128 221 34 128 238 34 128 255 34 128
0 51 128 17 51 128 34 51 128 51 51 128 68 51 128 85 51 128 102 51 128 119 51 128 136 51 128 153 51 128 170 51 128 187 51 128 204 51 128 221 51 128 238 51 128 255 51 128
0 68 128 17 68 128 34 68 128 51 68 128 68 68 128 85 68 128 102 68 128 119 68 128 136 68 128 153 68 128 170 68 128 187 68 128 204 68 128 221 68 128 238 68 128 255 68 128
0 85 128 17 85 128 34 85 128 51 85 128 68 85 128 85 85 128 102 85 128 119 85 128 136 85 128 153 85 128 170 85 128 187 85 128 204 85 128 221 85 128 238 85 128 255 85 128
0 102 128 17 102 128 34 102 128 51 102 128 68 102 128 85 102 128 102 102 128 119 102 128 136 102 128 153 102 128 170 102 128 187 102 128 204 102 128 221 102 128 238 102 128 255 102 128
0 119 128 17 119 128 34 119 128 51 119 128 68 119 128 85 119 128 102 119 128 119 119 128 136 119 128 153 119 128 170 119 128 187 119 128 204 119 128 221 119 128 238 119 128 255 119 128
0 136 128 17 136 128 34 136 128 51 136 128 68 136 128 85 136 128 102 136 128 119 136 128 136 136 128 153 136 128 170 136 128 187 136 128 204 136 128 221 136 128 238 136 128 255 136 128
0 153 128 17 153 128 34 153 128 51 153 128 68 153 128 85 153 128 102 153 128 119 153 128 136 153 128 153 153 128 170 153 128 187 153 128 204 153 128 221 153 128 238 153 128 255 153 128
0 170 128 17 170 128 34 170 128 51 170 128 68 170 128 85 170 128 102 170 128 119 170 128 136 170 128 153 170 128 170 170 128 187 170 128 204 170 128 221 170 128 238 170 128 255 170 128
0 187 128 17 187 128 34 187 128 51 187 128 68 187 128 85 187 128 102 187 128 119 187 128 136 187 128 153 187 128 170 187 128 187 187 128 204 187 128 221 187 128 238 187 128 255 187 128
0 204 128 17 204 128 34 204 128 51 204 128 68 204 128 85 204 128 102 204 128 119 204 128 136 204 128 153 204 128 170 204 128 187 204 128 204 204 128 221 204 128 238 204 128 255 204 128
0 221 128 17 221 128 34 221 128 51 221 128 68 221 128 85 221 128 102 221 128 119 221 128 136 221 128 153 221 128 170 221 128 187 221 128 204 221 128 221 221 128 238 221 128 255 221 128
0 238 128 17 238 128 34 238 128 51 238 128 68 238 128 85 238 128 102 238 128 119 238 128 136 238 128 153 238 128 170 238 128 187 238 128 204 238 128 221 238 128 238 238 128 255 238 128
0 255 128 17 255 128 34 255 128 51 255 128 68 255 128 85 255 128 102 255 128 119 255 128 136 255 128 153 255 128 170 255 128 187 255 128 204 255 128 221 255 128 238 255 128 255 255 128